X: 4
T: Lord McDonald's
R: reel
M: 4/4
L: 1/8
K: Gmaj
~G3B DGBG|cGBG AGEG|DGBG dG (3Bcd|gedc BGGF|~G3B dG~G2|cGBG AGEG|BGAF GEDB|DEGA BG~G2||BddB dBGB|defg aged|BddB dBGB|AB (3cBA BG~G2|BddB dBGB|defg aged|(3Bcd ef ~g3e|dBAc BG~G2||dgbg agbg|dgbg ageg|dgbg agbg|dedc BG~G2|dgbg agbg|dgbg ageg|bgaf gedB|dega bg~g2||BddB dBGB|defg aged|BddB dBGB|AB (3cBA BG~G2|BddB dBGB|defg aged|(3Bcd ef ~g3e|dBAc BG~G2||


Tune 507	Setting 13430

